src/renderer/assets/icon/iqiyiSidebar-default-icon.svg

<svg width="44px" height="44px" viewBox="0 0 44 44" version="1.1" xmlns="http://www.w3.org/2000/svg" xmlns:xlink="http://www.w3.org/1999/xlink">
    <defs>
        <circle id="path-1" cx="22" cy="22" r="22"></circle>
    </defs>
    <g id="组件" stroke="none" stroke-width="1" fill="none" fill-rule="evenodd">
        <g id="sideBarItem/__logoWithColorBg/--iqiyi" transform="translate(0.000000, 0.000000)">
            <mask id="mask-2" fill="white">
                <use xlink:href="#path-1"></use>
            </mask>
            <use id="colorBg" fill="#42BD56" xlink:href="#path-1"></use>
            <path d="M22.3064183,32.445045 C18.8200558,32.5271541 15.3341509,32.2630329 11.8999607,31.656565 C10.2244407,31.3451154 9.23884073,30.2136466 9.28812074,28.6396434 C9.28812074,28.1961234 9.45222314,27.9674642 9.91200554,27.9674642 L10.9789175,27.9674642 C11.373333,27.9060246 11.7498643,28.1543432 11.8487095,28.5410834 C12.0232569,29.1264746 12.5515684,29.5354452 13.1620215,29.5577298 C14.7389815,29.8041298 16.3297399,30.0012498 17.9219767,30.0998098 C20.4416263,30.2637897 22.9692712,30.2637897 25.4889207,30.0998098 C27.3122807,29.968725 29.1326839,29.8041298 30.9383031,29.5256978 C31.3953114,29.5092932 31.788133,29.1966352 31.9066551,28.7549586 C32.0707575,28.0334994 32.5472951,27.9516946 33.1706871,27.9516946 C34.7791863,27.967957 34.8284663,28.017237 34.4179639,29.5419602 C34.2313809,30.471155 33.540851,31.2179925 32.6290999,31.476693 C31.0597668,31.8833933 29.454512,32.1360814 27.8361271,32.2311698 C26.0002657,32.4418544 24.1510709,32.5130217 22.3044471,32.4440594 L22.3064183,32.445045 Z M22.3394359,11.572501 C25.4078562,11.4628014 28.4790869,11.6881946 31.4986167,12.2446802 C33.3535159,12.5403602 34.2395703,12.9986642 34.6338103,15.1960594 C34.7323703,15.7696786 34.5027256,16.0155858 33.9438903,15.9993234 C33.5989303,15.983061 33.2214455,15.933781 32.8597303,15.933781 C32.4635414,15.9785229 32.094034,15.7272997 31.9899383,15.342421 C31.7787275,14.8008066 31.2734241,14.4301355 30.6933815,14.391317 C26.994121,13.8452745 23.2523201,13.6421991 19.5156919,13.7846802 C17.3656055,13.8995026 15.1987639,14.1946898 13.0486775,14.4075794 C12.5399386,14.426961 12.0927975,14.7504578 11.9152375,15.2275986 C11.855483,15.4809423 11.696787,15.6998172 11.474572,15.8353683 C11.252357,15.9709195 10.9851224,16.0118623 10.7325175,15.9490578 C10.4762369,15.9216905 10.2184743,15.9106624 9.96079274,15.9160402 C9.46799273,15.9323026 9.28762793,15.7026578 9.28762793,15.2108434 C9.2523944,13.8963703 10.1539907,12.741426 11.4377143,12.4565842 C15.0203921,11.7142367 18.6809109,11.4163106 22.3364791,11.5695442 L22.3394359,11.572501 Z M19.5161847,22.0499218 L19.5161847,25.1323858 C19.5003637,25.4915376 19.4508666,25.8484116 19.3683447,26.1983122 C19.2697847,26.6418322 18.5798647,27.1163986 19.5492023,27.4441106 C19.7788471,27.5264082 19.7133047,28.0014674 19.6310071,28.312917 C19.5429031,28.5714032 19.2728864,28.7207016 19.0071223,28.657877 C18.2851703,28.608597 17.4794423,28.7071571 17.0211383,27.903893 C16.8864783,27.7061839 16.6497407,27.6040391 16.4135159,27.6417234 C16.1556551,27.6416237 15.8980604,27.625164 15.6422839,27.5924434 C13.2620599,27.2474834 12.9811639,26.9202642 12.9811639,24.5425042 L12.9811639,18.5244306 C12.9811639,17.4585042 13.3916663,16.9336722 14.4102839,16.6059602 C15.6468067,16.209148 16.9798177,16.2321906 18.2018871,16.6715026 C19.0716791,16.9671826 19.4491639,17.5240466 19.4831671,18.5569554 C19.5324472,19.7396754 19.5161848,20.9016978 19.5161847,22.049429 L19.5161847,22.0499218 Z M16.9043447,22.0336594 L16.9043447,18.7215506 C16.9043447,18.2622611 16.8220471,17.9015314 16.2479351,17.9015314 C15.7058551,17.9015314 15.5254903,18.1641938 15.5254903,18.6722706 L15.5254903,25.2964882 C15.5254903,25.7892882 15.6733303,26.1983122 16.2311799,26.1983122 C16.7890295,26.1983122 16.8875895,25.7390226 16.8875895,25.2802258 C16.9043447,24.1960658 16.8875895,23.1158482 16.9043447,22.0336594 Z M27.6882871,20.164469 C28.0164919,19.129589 28.2954167,18.3282962 28.5087991,17.5245394 C28.5424893,17.2583866 28.6812628,17.0167756 28.8941837,16.853567 C29.1071046,16.6903585 29.3764726,16.6191203 29.6422391,16.655733 C31.6282231,16.655733 31.3670391,16.7705554 30.8249591,18.2627538 C30.3489143,19.5745874 29.9551671,20.9026834 29.3958391,22.165237 C28.8365112,23.4277906 29.0183543,24.7884114 28.9523191,26.100245 C28.9360567,26.543765 29.1331768,27.1168914 28.5748343,27.3135186 C27.9522563,27.4715535 27.2975261,27.4488175 26.6874103,27.2479762 C26.5395703,27.2149586 26.4902903,27.0183314 26.4740279,26.8709842 L26.4740279,26.7231442 C26.9500727,23.4603154 25.3085559,20.689301 24.3894839,17.7541842 C24.0775415,16.7868178 24.1268215,16.6882578 25.1286839,16.6700242 C25.3583287,16.6700242 25.5884663,16.6862866 25.8186039,16.6700242 C26.0486045,16.6201708 26.2889569,16.6702558 26.4799018,16.8078263 C26.6708468,16.9453969 26.7944477,17.1575303 26.8199735,17.3914834 C27.0496183,18.2440274 27.3452983,19.080309 27.6897655,20.1624978 L27.6882871,20.164469 Z M34.7136439,22.0829394 L34.7136439,26.477237 C34.7136439,27.068597 34.5495415,27.364277 33.8758839,27.379061 C32.1850871,27.4120787 32.1850871,27.4283411 32.1850871,25.723253 C32.1850871,23.0345363 32.2013495,20.3290643 32.1850871,17.6235922 C32.1850871,16.8843922 32.4477495,16.6379922 33.1706871,16.6562258 C34.6983671,16.6892435 34.6983671,16.6562258 34.6983671,18.1484242 L34.7136439,22.0829394 Z M23.2895543,22.0992018 C23.2895543,23.6076626 23.2732919,25.1323858 23.2895543,26.6408466 C23.2895543,27.1489234 23.1254519,27.3307666 22.6331447,27.3623058 C20.7457207,27.4933906 20.7457207,27.5101458 20.7457207,25.6242002 L20.7457207,17.7714322 C20.7457207,16.7365522 20.8112632,16.672981 21.8298807,16.6567186 C21.9825433,16.6730197 22.1365077,16.6730197 22.2891703,16.6567186 C23.0283703,16.5749138 23.29054,16.8863634 23.2747703,17.624085 C23.2254903,19.1162834 23.2585079,20.607989 23.2585079,22.083925 L23.2895543,22.0992018 Z M11.6850999,23.574645 L11.6850999,26.5753042 C11.6850999,27.132661 11.4554551,27.3460434 10.9133751,27.3637842 C9.30487592,27.4293266 9.30487592,27.445589 9.30487592,25.8060434 C9.30487592,24.1172178 9.32113832,22.4283923 9.30487592,20.7233042 C9.30487592,20.100405 9.51825833,19.8544979 10.1584055,19.8544978 C11.9965495,19.8544978 11.7013623,19.7396754 11.7013623,21.329941 L11.6850999,23.574645 Z M11.6850999,17.9015314 C11.6850999,19.164085 11.6850999,19.164085 10.5516599,19.164085 C9.28762793,19.164085 9.28762793,19.164085 9.30438314,17.882805 C9.30438314,16.6695314 9.30438314,16.6695314 10.5516599,16.6695314 C11.6678519,16.6695314 11.6678519,16.6695314 11.6850999,17.9015314 L11.6850999,17.9015314 Z" id="logo" fill="#FFFFFF" fill-rule="nonzero" mask="url(#mask-2)"></path>
        </g>
    </g>
</svg>

<svg width="44" height="44" xmlns="http://www.w3.org/2000/svg" xmlns:xlink="http://www.w3.org/1999/xlink">
    <defs>
        <circle id="a" cx="22" cy="22" r="22"/>
    </defs>
    <g fill="none" fill-rule="evenodd">
        <mask id="b" fill="#fff">
            <use xlink:href="#a"/>
        </mask>
        <use fill="#42BD56" xlink:href="#a"/>
        <path d="M22.306 32.445a52.704 52.704 0 01-10.406-.788c-1.676-.312-2.661-1.443-2.612-3.017 0-.444.164-.673.624-.673h1.067a.775.775 0 01.87.574c.174.585.703.994 1.313 1.017 1.577.246 3.168.443 4.76.542 2.52.164 5.047.164 7.567 0 1.823-.131 3.644-.296 5.45-.574.456-.017.85-.33.968-.771.164-.722.64-.803 1.264-.803 1.608.016 1.657.065 1.247 1.59a2.529 2.529 0 01-1.789 1.935c-1.57.406-3.174.66-4.793.754a36.64 36.64 0 01-5.532.213l.002.001zm.033-20.872a42.17 42.17 0 019.16.672c1.855.295 2.74.754 3.135 2.951.098.574-.131.82-.69.803-.345-.016-.723-.065-1.084-.065a.807.807 0 01-.87-.592 1.5 1.5 0 00-1.297-.95 60.566 60.566 0 00-11.177-.607c-2.15.115-4.317.41-6.467.623a1.26 1.26 0 00-1.134.82.974.974 0 01-1.182.721 6.074 6.074 0 00-.772-.033c-.493.016-.673-.213-.673-.705a2.746 2.746 0 012.15-2.754 44.525 44.525 0 0110.898-.887l.003.003zM19.516 22.05v3.082c-.016.36-.065.716-.148 1.066-.098.444-.788.918.181 1.246.23.082.164.557.082.869a.53.53 0 01-.624.345c-.722-.05-1.528.05-1.986-.754a.617.617 0 00-.607-.262 6.04 6.04 0 01-.772-.05c-2.38-.345-2.66-.672-2.66-3.05v-6.018c0-1.065.41-1.59 1.428-1.918a5.889 5.889 0 013.792.066c.87.295 1.247.852 1.281 1.885.05 1.183.033 2.345.033 3.492zm-2.612-.016v-3.312c0-.46-.082-.82-.656-.82-.542 0-.723.262-.723.77v6.624c0 .493.148.902.706.902.558 0 .657-.459.657-.918.016-1.084 0-2.164.016-3.246zm10.784-1.87c.328-1.034.607-1.836.82-2.64a1.004 1.004 0 011.134-.868c1.986 0 1.725.115 1.183 1.607-.476 1.312-.87 2.64-1.43 3.902-.558 1.263-.377 2.623-.443 3.935-.016.444.181 1.017-.377 1.214a3.378 3.378 0 01-1.888-.066c-.147-.033-.197-.23-.213-.377v-.148c.476-3.263-1.165-6.034-2.085-8.969-.311-.967-.262-1.066.74-1.084.23 0 .46.016.69 0a.83.83 0 011.001.721c.23.853.525 1.69.87 2.771l-.002.002zm7.026 1.919v4.394c0 .592-.164.887-.838.902-1.69.033-1.69.05-1.69-1.656 0-2.688.015-5.394 0-8.1 0-.739.262-.985.985-.967 1.527.033 1.527 0 1.527 1.492l.016 3.935zm-11.424.016c0 1.509-.017 3.033 0 4.542 0 .508-.165.69-.657.721-1.887.131-1.887.148-1.887-1.738v-7.853c0-1.034.065-1.098 1.084-1.114.153.016.307.016.46 0 .738-.082 1 .23.985.967-.05 1.492-.016 2.984-.016 4.46l.03.015zm-11.605 1.476v3c0 .558-.23.771-.772.789-1.608.065-1.608.082-1.608-1.558 0-1.689.016-3.378 0-5.083 0-.623.213-.869.853-.869 1.839 0 1.543-.114 1.543 1.476l-.016 2.245zm0-5.673c0 1.262 0 1.262-1.133 1.262-1.264 0-1.264 0-1.248-1.281 0-1.213 0-1.213 1.248-1.213 1.116 0 1.116 0 1.133 1.232z" fill="#FFF" fill-rule="nonzero" mask="url(#b)"/>
    </g>
</svg>
